!!!!SEGMENT: pl-wn--mus-iii-62-780_zelenski-wladyslaw--szlo-dziecie-z-fujarka.krn
!!!cenid: 18xx:3767
!!!COM: Żeleński, Władysław
!!!COM-rismID: pe41024455
!!!CDT: 1837/07/06-1921/01/23
!!!CNT: Polish
!!!OTL: Szło dziecię z fujarką
!!!PDT:
!!!AGN:
!!!SMS-siglum: PL-Wn
!!!SMS-shelfmark: Mus.III.62.780
!!!SMS-shelfwork: W
!!!SMS-variant:
!!!SMS-altvar:
!!!NIFC-rismSourceID:
!!!NIFC-rismChildID:
!!!NIFC-islandoraID: none
!!!URL-pdf-islandora:
!!!URL-scan: https://polona2.pl/item/szlo-dziecie-z-fujarka-piesn-do-slow-maryi-kwileckiej,MTA2MzEwNDQ4/0 @EN{Scan on Polona} @PL{Skany w portalu Polona}
!!!IIIF: https://polona2.pl/iiif/item/MTA2MzEwNDQ4/manifest.json
!!!ONB-nifc:
!!!AIN: 1 piano 1 vox
!!!key: A
**kern	**kern	**dynam	**kern	**text	**dynam
*part2	*part2	*part2	*part1	*part1	*part1
*staff3	*staff2	*	*staff1	*staff1	*
*I"Fortepian.	*I"Fortepian.	*	*I"Śpiew.	*	*
*Ipiano	*Ipiano	*	*Ivox	*	*
*ICklav	*ICklav	*	*ICvox	*	*
*IGacmp	*IGacmp	*	*IGsolo	*	*
*clefF4	*clefG2	*	*clefG2	*	*
*k[f#c#g#]	*k[f#c#g#]	*	*k[f#c#g#]	*	*
*A:	*A:	*	*A:	*	*
*M2/4	*M2/4	*	*M2/4	*	*
=1	=1	=1	=1	=1	=1
!	!	!	!LO:TX:a:B:t=Andantino con moto.	!	!
*xywh-2:389,727,3616,1279	*xywh-2:389,727,3616,1279	*	*xywh-2:389,727,3616,1279	*	*
[2e [2A\	8r	p	2r	.	.
!	!LO:TX:b:i:t=semplice.	!	!	!	!
.	(8a\L	.	.	.	.
.	8b\	.	.	.	.
.	8dd\J	.	.	.	.
=2	=2	=2	=2	=2	=2
4e] 4A\]	8cc#/L)	.	2r	.	.
.	(8a/	.	.	.	.
[4e [4A\	8f#/	.	.	.	.
.	8a/J	.	.	.	.
=3	=3	=3	=3	=3	=3
4e] 4A\]	16g#/LL	.	2r	.	.
.	16a/	.	.	.	.
.	16b/	<	.	.	.
.	16f#/JJ	.	.	.	.
[4e [4A\	4a/)	.	.	.	.
=4	=4	=4	=4	=4	=4
4e] 4A\]	(16g#/LL	.	2r	.	.
.	16a/	.	.	.	.
.	16b/	.	.	.	.
.	16f#/JJ	.	.	.	.
[4e [4A\	8g#/L	.	.	.	.
.	8b/J	[[	.	.	.
=5	=5	=5	=5	=5	=5
4e] 4A\]	8cc#/L)	.	2r	.	.
.	(8c#/	pp	.	.	.
[4E [4AA/	8d/	.	.	.	.
.	8f#/J	.	.	.	.
=6	=6	=6	=6	=6	=6
4E] 4AA/]	8e/L)	.	2r	.	.
.	(8c#/	.	.	.	.
[4E [4AA/	8B/	.	.	.	.
.	8d/J	.	.	.	.
!!LO:LB:g=original
=7	=7	=7	=7	=7	=7
*xywh-2:440,1955,3565,1066	*xywh-2:440,1955,3565,1066	*	*xywh-2:440,1955,3565,1066	*	*
4E] 4AA/]	16c#/LL	<	2r	.	.
.	16d/	.	.	.	.
.	16e/	.	.	.	.
.	16B/JJ	.	.	.	.
[4E [4AA/	[4c#/	[[	.	.	.
=8	=8	=8	=8	=8	=8
4E] 4AA/]	16c#/LL]	>	4r	.	.
.	16d/	.	.	.	.
.	16e/	.	.	.	.
.	16B/JJ	.	.	.	.
4AA 4AAA/	8c#/L)	.	8r	.	.
!	!	!	!	!	!LO:DY:a
.	8e'/J	]	8e/	Szło	p
=9	=9	=9	=9	=9	=9
2E 2AA/	(4a 4c#/	pp	4a/	dzie-	.
.	4f# 4d/	.	8b\	-cię	.
.	.	.	8dd\	z fu-	.
=10	=10	=10	=10	=10	=10
2E 2AA/	4a 4c#/	.	8cc#\L	-jar-	.
.	.	.	8b\J	.	.
.	4f# 4d/)	.	8a/	-ką	.
.	.	.	8f#/	i	.
=11	=11	=11	=11	=11	=11
*	*^	*	*	*	*
*	*	*xywh-2:440,1955,3565,1066	*	*	*	*
2E 2AA/	[2g#/	(16B\LL	<	8g#/L	gra-	.
.	.	16c#\	.	.	.	.
.	.	16d\	.	8f#/J	.	.
.	.	16B\JJ	.	.	.	.
.	.	[4c#\	.	[4e/	-ło	.
=12	=12	=12	=12	=12	=12	=12
2E 2AA/	8g#/]	16c#\LL]	.	4e/]	.	.
.	.	16B\	[	.	.	.
.	8r	16c#\	.	.	.	.
.	.	16d\JJ	.	.	.	.
.	4r	8c#\L)	>	8e/	Wdro-	.
.	.	8e'\J	]	8e/	-dze	.
*	*v	*v	*	*	*	*
!!LO:LB:g=original
=13	=13	=13	=13	=13	=13
*xywh-2:466,3046,3710,963	*xywh-2:466,3046,3710,963	*	*xywh-2:466,3046,3710,963	*	*
2E 2AA/	(4a 4c#/	pp	(4a/	zbo-	.
.	4f# 4d/	.	8b/)	.	.
.	.	.	8dd\	-że	.
=14	=14	=14	=14	=14	=14
2E 2AA/	4a 4c#/	.	8cc#\L	mu	.
.	.	.	8b\J	.	.
.	4f# 4d/)	.	8a/	się	.
.	.	.	8f#/	kła-	.
=15	=15	=15	=15	=15	=15
*	*^	*	*	*	*
*	*	*xywh-2:466,3046,3710,963	*	*	*	*
2E 2AA/	[2g#/	(16d\LL	.	8g#/L	-nia	.
.	.	16c#\	.	.	.	.
.	.	16B\	.	8a/J	.	.
.	.	16c#\JJ	.	.	.	.
.	.	[4d\	.	[4b\	to	.
=16	=16	=16	=16	=16	=16	=16
2E 2AA/	4.g#/]	16d\LL]	.	4.b\]	.	.
.	.	16c#\	.	.	.	.
.	.	16B\	.	.	.	.
.	.	16f#\JJ	.	.	.	.
.	.	8e\L)	.	.	.	.
.	8b/	8d'\J	.	8e/	Swym	.
*	*v	*v	*	*	*	*
=17	=17	=17	=17	=17	=17
!	!	!	!LO:TX:a:i:t=poco espress.	!	!
(4E 4AA'/	(4a 4c#'/	.	4a/	śpie-	.
4c# 4A'\)	4e'/)	.	8b\	-wem	.
.	.	.	8cc#\	mu	.
=18	=18	=18	=18	=18	=18
(4G# 4C#'\	(4ee 4e'/	.	4ee\	wie-	.
4A 4F#'\)	4a 4d#X'/)	.	8dd#X\	-trzyk	.
.	.	.	8cc#\	wtó-	.
!!LO:LB:g=original
=19	=19	=19	=19	=19	=19
!	!LO:TX:b:i:t=sempre portamento	!	!	!	!
*xywh-2:431,4061,3795,1108	*xywh-2:431,4061,3795,1108	*	*xywh-2:431,4061,3795,1108	*	*
4F# 4BB\	4dd#X 4d#X/	.	8dd#X\L	-ro-	.
.	.	.	8cc#\J	.	.
4G# 4E\	4g# 4e/	.	[4b\	-wał	.
=20	=20	=20	=20	=20	=20
4G# 4GG#/	4b 4d#X/	.	4b\]	.	.
4B 4G#\	4g# 4e/	.	8g#/	Zło-	.
.	.	.	8b\	-te	.
=21	=21	=21	=21	=21	=21
4F# 4FF#/	4cc# 4e/	.	(4cc#\	wło-	.
4c# 4A\	4f# 4e/	.	8b\)	.	.
.	.	.	8a/	-sy	.
=22	=22	=22	=22	=22	=22
4A 4BB\	4cc# 4e/	.	8ee\L	je-	.
.	.	.	8cc#\J	.	.
4B 4A\	4f# 4d#X/	.	8b\	-go	.
.	.	.	8a/	ca-	.
=23	=23	=23	=23	=23	=23
4E 4EE/	4b 4dn/	.	8g#/L	-ło-	.
.	.	.	8b/J	.	.
4G# 4E\	[4e [4c#^/	.	[4e/	-wał	.
=24	=24	=24	=24	=24	=24
4D 4DD/	4e] 4c#/]	.	4e/]	.	.
4G# 4D\	4e 4B/	.	4e/	Śpiew	.
!!LO:PB:g=original
=25	=25	=25	=25	=25	=25
*xywh-3:299,669,3513,1045	*xywh-3:299,669,3513,1045	*	*xywh-3:299,669,3513,1045	*	*
!	!	!	!LO:TX:a:i:t=espress.	!	!
4C# 4CC#/	4ee 4e/	<	4ee\	je-	.
4A 4F#\	4a 4d#X/	.	8dd#X\	-go	.
!	!	!	!	!	!LO:HP:a
.	.	.	8b\	się	<
=26	=26	=26	=26	=26	=26
4F# 4BB\	4ddn 4dn/	.	8ddn\L	łą-	.
.	.	.	8cc#\J	.	.
4G# 4E\	4g# 4d/	.	8b\	-czył	.
.	.	.	8dd\	z pta-	.
=27	=27	=27	=27	=27	=27
4E 4AA/	4cc# 4c#/	.	4cc#\	-ka-	.
4c# 4A\	4f# 4e/	[	[4f#/	-mi	[[
=28	=28	=28	=28	=28	=28
4F# 4FF#/	4ccn 4e/	>	4f#/]	.	.
!	!	!	!	!	!LO:HP:a
4A 4F#\	4e 4cn/	]]	8a/	Po-	>
.	.	.	8b\	-tem	]]
=29	=29	=29	=29	=29	=29
!	!	!	!LO:TX:a:i:t=dolce.	!	!
4Fn 4FFn/	4ccn 4e/	.	(4ccn\	z chmu-	.
4A 4F\	4d#X 4B/	<	8b\)	.	.
.	.	.	8a/	-ry	.
=30	=30	=30	=30	=30	=30
!	!	!	!	!	!LO:HP:a
4E 4EE/	4cc#X 4c#X/	.	8ee\L	są-	<
.	.	.	8cc#X\J	.	.
4A 4E\	4f#X 4c#/	[[	8a/	-czył	.
.	.	.	8cc#\	się	[
=31	=31	=31	=31	=31	=31
!	!	!	!	!	!LO:HP:a
4E 4EE/	4b 4d/	.	8f#/L	łza-	>
.	.	.	8g#/J	.	.
4E 4AA/	[4e [4c#^>/	.	[4a/	-mi.	]]
!!LO:LB:g=original
=32	=32	=32	=32	=32	=32
*	*^	*	*	*	*
!	!	!	!LO:HP:t=cresc. un poco	!	!	!
*xywh-3:251,1733,3758,1121	*xywh-3:251,1733,3758,1121	*xywh-3:251,1733,3758,1121	*	*xywh-3:251,1733,3758,1121	*	*
4E 4EE/	4e/]	16c#\LL]	<	4.a/]	.	.
.	.	16B\	.	.	.	.
.	.	16c#\	.	.	.	.
.	.	16d\JJ	.	.	.	.
4E 4AA/	[4e^/	[4c#\	.	.	.	.
.	.	.	.	8r	.	.
=33	=33	=33	=33	=33	=33	=33
4E 4EE/	4e/]	16c#\LL]	.	2r	.	.
.	.	16B\	.	.	.	.
.	.	16c#\	.	.	.	.
.	.	16d\JJ	.	.	.	.
4E 4AA/	[4e^/	[4c#\	.	.	.	.
=34	=34	=34	=34	=34	=34	=34
4E 4EE/	4.e/]	16c#\LL]	>	4r	.	.
.	.	16B\	.	.	.	.
.	.	16c#\	.	.	.	.
.	.	16d\JJ	.	.	.	.
4AA 4AAA/	.	8c#\L	.	8r	.	.
!	!	!	!	!	!	!LO:DY:a
.	8r	8e'\J	]	8e/	Ztąd	p
*	*v	*v	*	*	*	*
=35	=35	=35	=35	=35	=35
2E 2AA/	(4a 4c#/	pp	4a/	ta-	.
.	4f# 4d/	.	8b\	-kie	.
.	.	.	8dd\	ro-	.
=36	=36	=36	=36	=36	=36
2E 2AA/	4a 4c#/	.	8cc#\L	-dzin-	.
.	.	.	8b\J	.	.
.	4f# 4d/)	.	8a/	-ne	.
.	.	.	8f#/	pow-	.
=37	=37	=37	=37	=37	=37
*	*^	*	*	*	*
*	*	*xywh-3:251,1733,3758,1121	*	*	*	*
2E 2AA/	[2g#/	(16B\LL	<	8g#/L	-sta-	.
.	.	16c#\	.	.	.	.
.	.	16d\	.	8f#/J	.	.
.	.	16B\JJ	.	.	.	.
.	.	[4c#\	[[	[4e/	-ły	.
!!LO:LB:g=original
=38	=38	=38	=38	=38	=38	=38
*xywh-3:320,2846,3583,1091	*xywh-3:320,2846,3583,1091	*xywh-3:320,2846,3583,1091	*xywh-3:320,2846,3583,1091	*xywh-3:320,2846,3583,1091	*	*
2E 2AA/	8g#/]	16c#\LL]	<	4e/]	.	.
.	.	16B\	.	.	.	.
.	8r	16c#\	.	.	.	.
.	.	16d\JJ	[	.	.	.
.	4r	8c#\L)	>	8e/	Śpie-	.
.	.	8e'\J	]	8e/	-wy	.
*	*v	*v	*	*	*	*
=39	=39	=39	=39	=39	=39
2E 2AA/	(4a 4c#/	pp	(4a/	któ-	.
.	4f# 4d/	.	8b\)	.	.
.	.	.	8dd\	-re	.
=40	=40	=40	=40	=40	=40
2E 2AA/	4a 4c#/	.	8cc#\L	prze-	.
.	.	.	8b\J	.	.
.	4f# [4d/)	.	8a/	-szły	.
.	.	.	8f#/	ś wiat	.
=41	=41	=41	=41	=41	=41
*	*^	*	*	*	*
*	*	*xywh-3:320,2846,3583,1091	*	*	*	*
2E 2AA/	[2g#/	(16d\LL]	<	8g#/L	ca-	.
.	.	16c#\	.	.	.	.
.	.	16B\	.	8a/J	.	.
.	.	16c#\JJ	.	.	.	.
.	.	[4d\	.	[4b\	-ły	.
=42	=42	=42	=42	=42	=42	=42
2E 2AA/	4.g#/]	16d\LL]	.	4b\]	.	.
.	.	16c#\	.	.	.	.
.	.	16B\	[	.	.	.
.	.	16f#\JJ	.	.	.	.
.	.	8e\L)	>	8e/	Le-	.
.	8b/	8d'\J	]	8e/	-cą	.
*	*v	*v	*	*	*	*
=43	=43	=43	=43	=43	=43
!	!	!	!LO:TX:a:i:t=poco espress.	!	!
(4E 4AA'>/	(4a 4c#'/	.	(4a/	za	.
4c# 4A'\)	4e'/)	.	8b\)	.	.
.	.	.	8cc#\	nim	.
!!LO:LB:g=original
=44	=44	=44	=44	=44	=44
*xywh-3:302,3963,3591,1065	*xywh-3:302,3963,3591,1065	*	*xywh-3:302,3963,3591,1065	*	*
(4G# 4C#'\	(4ee 4e'/	.	4ee\	pta-	.
4A 4F#'\)	4a 4d#X'/)	.	8dd#X\	-ków	.
!	!	!	!	!	!LO:DY:a
.	.	.	8cc#\	łań-	<
=45	=45	=45	=45	=45	=45
!	!LO:TX:b:i:t=sempre portamento	!	!	!	!
4F# 4BB/	4dd#X 4d#X/	.	8dd#X\L	-cu-	.
.	.	.	8cc#\J	.	.
4G# 4E\	4g# 4e/	.	[4b\	-chy	.
=46	=46	=46	=46	=46	=46
4G# 4GG#/	4b 4d#X/	.	4b\]	.	[
4B 4G#\	4g# 4e/	.	8g#/	J	.
.	.	.	8b\	za-	.
=47	=47	=47	=47	=47	=47
4F# 4FF#/	4cc# 4e/	.	(4cc#\	-klę-	.
4c# 4A\	4f# 4e/	.	8b\)	.	.
.	.	.	8a/	-te	.
=48	=48	=48	=48	=48	=48
4A 4BB\	4cc# 4e/	.	8ee\L	gra-	.
.	.	.	8cc#\J	.	.
4B 4A\	4f# 4d#X/	.	8b\	-ją	.
.	.	.	8a/	mu	.
=49	=49	=49	=49	=49	=49
!	!	!	!	!	!LO:HP:a
4E 4EE/	4b 4dn/	.	8g#/L	du-	>
.	.	.	8b/J	.	.
4G# 4E\	[4e [4c#^/	.	[4e/	-chy	]]
=50	=50	=50	=50	=50	=50
4D 4DD/	4e] 4c#/]	.	4e/]	.	.
!	!	!	!LO:TX:a:i:t=espress.	!	!
4G# 4D\	4e 4B/	.	4e/	Tak	.
!!LO:PB:g=original
=51	=51	=51	=51	=51	=51
*xywh-4:468,604,3526,1057	*xywh-4:468,604,3526,1057	*	*xywh-4:468,604,3526,1057	*	*
4C# 4CC#/	4ee 4e/	.	4ee\	i-	.
!	!	!	!	!	!LO:HP:a
4A 4F#\	4a 4d#X/	.	8dd#X\	-dzie	<
.	.	.	8b\	chłop-	.
=52	=52	=52	=52	=52	=52
4F# 4BB\	4ddn 4dn/	.	8ddn\L	-czy-	.
.	.	.	8cc#\J	.	.
4G# 4E\	4g# 4d/	.	8b\	-na	.
.	.	.	8dd\	nad	.
=53	=53	=53	=53	=53	=53
4E 4AA/	4cc# 4c#/	.	4cc#\	mo-	.
4c# 4A\	4f# 4e/	.	[4f#/	-rze	[
=54	=54	=54	=54	=54	=54
4F# 4FF#/	4ccn 4e/	.	4f#/]	.	.
!	!	!	!	!	!LO:HP:a
4A 4F#\	4e 4cn/	.	8a/L	J	>
.	.	.	8b/J	.	]
=55	=55	=55	=55	=55	=55
!	!	!	!LO:TX:a:i:t=dolce.	!	!
4Fn 4FFn/	4ccn 4e/	.	4ccn\	śpiew	.
4A 4F\	4d#X 4B/	.	8b\	swoj	.
.	.	.	8a/	za-	.
=56	=56	=56	=56	=56	=56
!	!	!	!	!	!LO:HP:a
4E 4EE/	4cc#X 4c#X/	.	8ee\L	-wo-	<
.	.	.	8cc#X\J	.	.
4A 4E\	4f#X 4c#/	.	8a/	-dzi	.
.	.	.	8cc#\	w prze-	[
!!LO:LB:g=original
=57	=57	=57	=57	=57	=57
*xywh-4:502,1688,3518,1066	*xywh-4:502,1688,3518,1066	*	*xywh-4:502,1688,3518,1066	*	*
4E 4EE/	4b 4d/	.	8f#/L	-stwo-	.
.	.	.	8g#/J	.	.
!	!	!	!	!	!LO:HP:a
4E 4AA/	[4e [4c#^/	.	[4a/	-rze!	>
=58	=58	=58	=58	=58	=58
*	*^	*	*	*	*
!	!	!	!LO:HP:t=cresc. un poco	!	!	!
*	*	*xywh-4:502,1688,3518,1066	*	*	*	*
4E 4EE/	4e/]	(16c#\LL]	<	4.a/]	.	]
.	.	16B\	.	.	.	.
.	.	16c#\	.	.	.	.
.	.	16d\JJ	.	.	.	.
4E 4AA/	[4e/	[4c#^\)	.	.	.	.
.	.	.	.	8r	.	.
=59	=59	=59	=59	=59	=59	=59
4E 4EE/	4e/]	(16c#\LL]	.	2r	.	.
.	.	16B\	.	.	.	.
.	.	16c#\	.	.	.	.
.	.	16d\JJ	.	.	.	.
4E 4AA/	[4e/	[4c#^\	.	.	.	.
=60	=60	=60	=60	=60	=60	=60
4E 4EE/	4.e/]	16c#\LL]	>	4r	.	.
.	.	16B\	.	.	.	.
.	.	16c#\	.	.	.	.
.	.	16d\JJ	.	.	.	.
!	!	!	!	!	!	!LO:DY:a
4AA 4AAA/	.	8c#\L)	.	(4e/	Ję-	p
.	8r	8e'\J	]	.	.	.
*	*v	*v	*	*	*	*
=61	=61	=61	=61	=61	=61
2E 2AA/	(4a 4c#/	pp	4a/	.	.
.	4f# 4d/)	.	8b\)	.	.
.	.	.	8dd\	-czy	.
!!LO:LB:g=original
=62	=62	=62	=62	=62	=62
*xywh-4:502,2789,3578,1075	*xywh-4:502,2789,3578,1075	*	*xywh-4:502,2789,3578,1075	*	*
2E 2AA/	(4a 4c#/	.	8cc#\	je-	.
.	.	.	8b\	-go	.
.	4f# 4d/)	.	8a/	nu-	.
.	.	.	8f#/	-ta	.
=63	=63	=63	=63	=63	=63
*	*^	*	*	*	*
*	*	*xywh-4:502,2789,3578,1075	*	*	*	*
2E 2AA/	[2g#/	(16B\LL	.	8g#/	po-	.
.	.	16c#\	.	.	.	.
.	.	16d\	.	8f#/	-śród	.
.	.	16B\JJ	.	.	.	.
.	.	[4c#\	.	[4e/	fal,	.
=64	=64	=64	=64	=64	=64	=64
2E 2AA/	4.g#/]	16c#\LL]	.	4e/]	.	.
.	.	16B\	.	.	.	.
.	.	16c#\	.	.	.	.
.	.	16d\JJ	.	.	.	.
.	.	8c#\L)	.	8e/	J	.
.	8r	8e'\J	.	8e/	za-	.
*	*v	*v	*	*	*	*
=65	=65	=65	=65	=65	=65
!	!	!LO:HP:t=poco cresc. 	!	!	!LO:HP:a
(4E 4AA/	(4a 4c#/	<	(4a/	-no-	<
4Gn 4GGn/	4b 4d/	.	8b\)	.	.
.	.	.	8dd\	-si	.
=66	=66	=66	=66	=66	=66
4Cn 4CCn/)	4ee 4b 4e/)	.	8ee\	skar-	.
.	.	.	8dd\	-gę	[
4cn 4Fn\	[4a 4e/	.	8ccn\	je-	.
.	.	.	8ee\	-go	.
!!LO:LB:g=original
=67	=67	=67	=67	=67	=67
*	*^	*	*	*	*
!	!	!	!	!	!	!LO:HP:a
*xywh-4:528,3907,3535,1221	*xywh-4:528,3907,3535,1221	*xywh-4:528,3907,3535,1221	*	*xywh-4:528,3907,3535,1221	*	*
4BB 4BBB/	2a/_	4.d\	<	[4dd\	w dal	>
[4B (<4Fn\	.	.	.	8dd\]	.	]
.	.	(<16c#X\LL	.	8r	.	.
.	.	16d\JJ	[	.	.	.
=68	=68	=68	=68	=68	=68	=68
4B] 4E\)	(4a/]	8e\L	>	4r	.	.
.	.	8d\	.	.	.	.
.	.	8qd/	.	.	.	.
!	!	!	!	!	!	!LO:DY:a
4E 4EE/	4g#/)	8cn\)	.	8e/	Lu-	p
.	.	8B'\J	]	8e/	-dzie	.
=69	=69	=69	=69	=69	=69	=69
4AA 4AAA/	(2a/	(16cn\LL	pp	(4a/	mu	.
.	.	16d\JJ	.	.	.	.
.	.	4e\)	.	.	.	.
4A 4E\	.	.	.	8b\)	.	.
.	.	(<8qgn/	.	.	.	.
.	.	(8fn\)	.	8ccn\	wtó-	.
=70	=70	=70	=70	=70	=70	=70
4AA 4AAA/	2b/)	4.e\)	.	8dd\	-ru-	.
.	.	.	.	8ccn\	-ją	.
4B 4E\	.	.	.	8b\	jak	.
.	.	(<8qgn/	.	.	.	.
.	.	(8fn\)	.	8dd\	przez	.
=71	=71	=71	=71	=71	=71	=71
4AA 4AAA/	[2ccn/	4.e\)	.	4.ccn\	sen.	.
4A 4E\	.	.	.	.	.	.
.	.	(<8qgn/	<	.	.	.
.	.	(8fn\)	.	8r	.	.
!!LO:PB:g=original
=72	=72	=72	=72	=72	=72	=72
*xywh-5:109,618,3582,1120	*xywh-5:109,618,3582,1120	*xywh-5:109,618,3582,1120	*xywh-5:109,618,3582,1120	*xywh-5:109,618,3582,1120	*	*
4AA 4AAA/	2ccn/_	4.e\)	.	4r	.	.
4A 4E\	.	.	.	8r	.	.
!	!	!	!	!LO:TX:a:i:t=con gran espress.	!	!
.	.	(16fn\LL	.	8ccn\	Lecz	.
.	.	16gn\JJ	[	.	.	.
=73	=73	=73	=73	=73	=73	=73
4D 4DD/	4cc/]	4fn\)	.	4ffn\	skar-	.
4A 4D\	(>[4f (4cn/	4ryy	.	8a/	-ga	.
.	.	.	.	8ccn\	ich	.
=74	=74	=74	=74	=74	=74	=74
4GGn 4GGGn/	4f/_	2B\)	.	8b\L	wzru-	.
.	.	.	.	8dd\J	.	.
4Gn 4D 4GG/	16f/LL]	.	.	8ccn\	-szy	.
.	16a/	.	.	.	.	.
.	16gn/	.	.	8b\	i	.
.	16fn/JJ	.	.	.	.	.
*	*v	*v	*	*	*	*
=75	=75	=75	=75	=75	=75
4Cn 4CCn/	4b) 4e/	.	(4.ee\	śpie	.
4Gn 4C\	(>[4e (4B/	.	.	.	.
.	.	.	8ccn\)	.	.
=76	=76	=76	=76	=76	=76
*	*^	*	*	*	*
*	*	*xywh-5:109,618,3582,1120	*	*	*	*
4FFn 4FFFn/	4e/_	2A\)	.	4.a/	ten	.
4Fn 4Cn 4FF/	16e/LL]	.	.	.	.	.
.	16gn/	.	.	.	.	.
.	16fn/	.	.	8r	.	.
.	16e/JJ)	.	.	.	.	.
=77	=77	=77	=77	=77	=77	=77
!	!	!	!LO:HP:t=dim.	!	!	!
4BB 4BBB/	[2d#X/	(4.A\	>	2r	.	.
4F#X 4BB\	.	.	.	.	.	.
.	.	16B\LL	.	.	.	.
.	.	16cn\JJ	.	.	.	.
!!LO:LB:g=original
=78	=78	=78	=78	=78	=78	=78
*xywh-5:135,1764,3497,1034	*xywh-5:135,1764,3497,1034	*xywh-5:135,1764,3497,1034	*xywh-5:135,1764,3497,1034	*xywh-5:135,1764,3497,1034	*	*
4BB 4BBB/	2d#/]	8B\L)	.	2r	.	.
.	.	(8A\	.	.	.	.
4F# 4BB\	.	8G#X\	.	.	.	.
.	.	8A\J	.	.	.	.
=79	=79	=79	=79	=79	=79	=79
4E 4EE/	[2e/	16G#\LL	.	2r	.	.
.	.	16A\JJ	.	.	.	.
.	.	[4.B\)	>	.	.	.
4G# 4E\	.	.	.	.	.	.
=80	=80	=80	=80	=80	=80	=80
4D 4DD/	4e/]	8B\L]	.	4r	.	.
.	.	(16c#X\L	.	.	.	.
.	.	16d\JJ	.	.	.	.
!	!	!	!	!LO:TX:a:i:t=dolce.	!	!
4G# 4D\	4e/	8c#\L	.	8e/	J	.
.	.	8B\J)	]	8e/	już	.
*	*v	*v	*	*	*	*
=81	=81	=81	=81	=81	=81
4C# 4CC#/	(4ee 4e'/	pp	(4ee\	się	.
4A 4F#\	4a 4d#X'/)	.	8dd#X\)	.	.
.	.	.	8b\	py-	.
=82	=82	=82	=82	=82	=82
!	!	!	!	!	!LO:HP:a
4F# 4BB\	4ddn 4dn/	<	8ddn\L	-ta-	<
.	.	.	8cc#\	.	.
4G# 4E\	4g# 4d/	.	8b\J	.	.
.	.	.	8dd\	-ją	.
=83	=83	=83	=83	=83	=83
4E 4AA/	4cc# 4c#/	.	8cc#\	cze-	.
.	.	.	8a/	-mu	.
4c# 4A\	4f# 4e/	[	[4f#/	ton	[
!!LO:LB:g=original
=84	=84	=84	=84	=84	=84
*xywh-5:135,2833,3565,1120	*xywh-5:135,2833,3565,1120	*xywh-5:135,2833,3565,1120	*xywh-5:135,2833,3565,1120	*	*
4F# 4FF#/	4ccn 4e/	>	4f#/]	.	.
!	!	!	!	!	!LO:DY:a
4A 4F#\	4e 4cn/	]]	8a/	Tej	p
.	.	.	8b\	fu-	.
=85	=85	=85	=85	=85	=85
!	!	!	!	!	!LO:HP:a
4Fn 4FFn/	4ccn 4e/	.	(4ccn\	-jar-	<
4A 4F\	4d#X 4B/	<	8b\)	.	.
.	.	.	8a/	-ki	.
=86	=86	=86	=86	=86	=86
4E 4EE/	4cc#X 4c#X/	.	[2ee\	bi-	[[
4A 4E\	[4e [4c#/	[	.	.	.
=87	=87	=87	=87	=87	=87
!	!	!	!	!	!LO:HP:a
4E 4EE/	4e] 4c#/]	<	(8ee\]	.	<
.	.	.	4a/)	.	.
4A 4E\	[4f# [4c#/	.	.	.	.
.	.	.	8cc#\	-je	.
=88	=88	=88	=88	=88	=88
4E 4EE/	4f#] 4c#/]	.	4.f#/	Jak-	.
4G# 4E\	4e 4d/	.	.	.	.
.	.	.	8g#/	-by	.
=89	=89	=89	=89	=89	=89
*	*^	*	*	*	*
!	!	!	!LO:DY:t= quasi f	!	!	!LO:DY:a
*	*	*xywh-5:135,2833,3565,1120	*	*	*	*
4AA 4AAA/	[2e/	(16d\LL	f	[2a/	dzwon?	>
.	.	16c#\	.	.	.	.
.	.	16B\	.	.	.	.
.	.	16d\JJ	.	.	.	.
4A 4E 4AA\	.	[4c#\)	.	.	.	.
!!LO:LB:g=original
=90	=90	=90	=90	=90	=90	=90
*xywh-5:126,3962,3565,1265	*xywh-5:126,3962,3565,1265	*xywh-5:126,3962,3565,1265	*xywh-5:126,3962,3565,1265	*xywh-5:126,3962,3565,1265	*	*
4AA 4AAA/	2e/_	16c#\LL]	.	4.a/]	.	.
.	.	16B\	.	.	.	]
.	.	16c#\	.	.	.	.
.	.	16d\JJ	.	.	.	.
4A 4E 4AA\	.	8c#\L	.	.	.	.
.	.	8B\J	.	8r	.	.
=91	=91	=91	=91	=91	=91	=91
!	!	!LO:TX:t=P:problem=mixed beam	!	!	!	!
4AA 4AAA/	4e/]	16A\LL	.	2r	.	.
.	.	16B\	.	.	.	.
.	.	16c#\	.	.	.	.
.	.	16E</JJ	.	.	.	.
4C# 4FF#\	8A/L	4F#</	.	.	.	.
.	8B/J	.	.	.	.	.
=92	=92	=92	=92	=92	=92	=92
4AA 4AAA\	(16c#/LL	4E</	.	2r	.	.
.	16d/	.	.	.	.	.
.	16e/	.	.	.	.	.
.	16E</JJ)	.	.	.	.	.
4F# 4C# 4FF#\	(8A</L	4ryy	.	.	.	.
.	8B</J	.	.	.	.	.
=93	=93	=93	=93	=93	=93	=93
4AA 4AAA\	16c#/LL	4E</	.	2r	.	.
.	16d/	.	.	.	.	.
.	16e/	.	.	.	.	.
.	16E</JJ)	.	.	.	.	.
4C# 4FF#/	[4A/	[4F#\	>	.	.	.
=94	=94	=94	=94	=94	=94	=94
4DD 4DDD/	(4A/]	4F#\]	.	2r	.	.
4D 4GG# 4DD/	4B 4G#'/)	4Fn\	]	.	.	.
*	*v	*v	*	*	*	*
=95	=95	=95	=95	=95	=95
2AA 2EE 2AAA;</	2c# 2A 2E;/	ppp	2r;	.	.
==	==	==	==	==	==
*-	*-	*-	*-	*-	*-
!!!system-decoration: s1{(s2,s3)}
!!!RDF**kern: > = above
!!!RDF**kern: < = below
!!!ENC: Filip Voros
!!!END: 2022-03-15
!!!ENC: Marta Lawrence
!!!END: 2022-03-20
!!!ENC-iiif: Konrad Tyszka
!!!END-iiif: 2022-08-29
!!!YEC: Copyright 2022 Narodowy Instytut Fryderyka Chopina (https://polishscores.org)
!!!YEM: License CC-BY-4.0 (https://creativecommons.org/licenses/by/4.0)
